assets/images/icons/group.svg

<svg width="32" height="32" viewBox="0 0 32 32" fill="none" xmlns="http://www.w3.org/2000/svg">
<g clip-path="url(#clip0_594_16633)">
<path opacity="0.1" d="M0.223155 23.1618C-0.0589054 20.752 -0.098086 18.3874 0.248062 16.248C0.673696 13.6174 1.78493 10.6909 2.99894 8.07362C5.37163 2.95839 9.61911 1.16885 14.7912 0.362065C22.0007 -0.762522 31.9372 0.362091 32 9.08714C31.6383 12.2073 29.2517 20.8815 21.1951 21.5434C18.5313 21.7622 17.5348 24.4378 16.3612 27.5006C13.2729 35.5602 1.25575 31.9835 0.223155 23.1618Z" fill="#7FB51F"/>
<path d="M10.587 8.07741C10.587 6.37838 11.9644 5.00098 13.6636 5.00098C15.3626 5.00098 16.7402 6.37838 16.7402 8.07741C16.7402 9.77644 15.3626 11.1538 13.6636 11.1538C11.9644 11.1538 10.587 9.77644 10.587 8.07741ZM15.1421 13.2498C15.173 12.5799 15.4036 11.9598 15.7746 11.4473C15.5142 11.3927 15.2451 11.3638 14.9689 11.3638H12.3587C12.0833 11.3638 11.8146 11.3925 11.5555 11.4464C11.9503 11.994 12.1865 12.6628 12.1904 13.3869C12.6703 13.1229 13.221 12.9726 13.8059 12.9726C14.2804 12.9726 14.7321 13.0714 15.1421 13.2498ZM15.6629 13.5259C16.5565 14.0863 17.1831 15.0341 17.2978 16.1349C17.6619 16.305 18.0665 16.4032 18.4952 16.4032C20.0607 16.4032 21.3296 15.1341 21.3296 13.5687C21.3296 12.003 20.0607 10.7342 18.4952 10.7342C16.944 10.7343 15.6864 11.9805 15.6629 13.5259ZM13.8059 19.3297C15.3711 19.3297 16.6401 18.0603 16.6401 16.4953C16.6401 14.93 15.3711 13.6608 13.8059 13.6608C12.2405 13.6608 10.9709 14.93 10.9709 16.4953C10.971 18.0603 12.2405 19.3297 13.8059 19.3297ZM15.0082 19.5227H12.6033C10.6022 19.5227 8.9738 21.1509 8.9738 23.1523V26.0938L8.98145 26.1399L9.18391 26.2028C11.0937 26.7993 12.7529 26.9988 14.1187 26.9988C16.7857 26.9988 18.3322 26.2383 18.4274 26.1896L18.6169 26.0938H18.637V23.1522C18.637 21.1509 17.0096 19.5227 15.0082 19.5227ZM19.6982 16.5967H17.3113C17.2854 17.5517 16.8778 18.4117 16.2332 19.0299C18.012 19.5589 19.3134 21.2083 19.3134 23.1568V24.0631C21.6697 23.9764 23.0277 23.3089 23.1172 23.2639L23.3066 23.1676H23.3267V20.2255C23.327 18.2247 21.6988 16.5967 19.6982 16.5967ZM20.3362 10.6738C21.2298 11.2343 21.8564 12.1821 21.9708 13.2828C22.3349 13.453 22.7395 13.551 23.1682 13.551C24.7341 13.551 26.0029 12.2821 26.0029 10.7169C26.0029 9.15118 24.734 7.88244 23.1682 7.88244C21.6172 7.88226 20.3598 9.1288 20.3362 10.6738ZM24.3709 13.7445H21.9845C21.9586 14.6996 21.5511 15.5596 20.9065 16.1777C22.6852 16.7065 23.9867 18.3562 23.9867 20.3046V21.211C26.3427 21.1244 27.701 20.4571 27.7905 20.4118L27.9797 20.3157H28V17.3733C28.0003 15.3726 26.3721 13.7445 24.3709 13.7445ZM8.83237 16.4032C9.38689 16.4032 9.90251 16.2413 10.3398 15.9655C10.4788 15.0593 10.9647 14.2673 11.6584 13.7281C11.6614 13.6749 11.6662 13.6224 11.6662 13.5687C11.6662 12.003 10.397 10.7343 8.83237 10.7343C7.26644 10.7343 5.99769 12.003 5.99769 13.5687C5.99769 15.1345 7.26639 16.4032 8.83237 16.4032ZM11.3779 19.0299C10.7363 18.4147 10.3301 17.5594 10.3002 16.6099C10.212 16.6033 10.1243 16.5967 10.0341 16.5967H7.62948C5.62812 16.5967 4 18.2247 4 20.2258V23.1676L4.00743 23.2134L4.21015 23.2766C5.74192 23.7556 7.10952 23.9757 8.29732 24.0445V23.1564C8.29754 21.2083 9.5987 19.5586 11.3779 19.0299Z" fill="#7FB51F"/>
</g>
<defs>
<clipPath id="clip0_594_16633">
<rect width="32" height="32" fill="white"/>
</clipPath>
</defs>
</svg>

<svg xmlns="http://www.w3.org/2000/svg" width="32" height="32" fill="none"><g fill="#7FB51F" clip-path="url(#a)"><path d="M.223 23.162c-.282-2.41-.321-4.775.025-6.914.426-2.63 1.537-5.557 2.75-8.174C5.373 2.958 9.62 1.169 14.792.362 22.001-.763 31.937.362 32 9.087c-.362 3.12-2.748 11.795-10.805 12.456-2.664.22-3.66 2.895-4.834 5.958-3.088 8.06-15.105 4.482-16.138-4.34" opacity=".1"/><path d="M10.587 8.077a3.077 3.077 0 1 1 6.153 0 3.077 3.077 0 0 1-6.153 0m4.555 5.173c.031-.67.262-1.29.633-1.803a4 4 0 0 0-.806-.083h-2.61a4 4 0 0 0-.803.082c.394.548.63 1.217.634 1.94a3.34 3.34 0 0 1 1.616-.413c.474 0 .926.098 1.336.277m.52.276a3.51 3.51 0 0 1 1.636 2.609c.364.17.769.268 1.197.268a2.834 2.834 0 1 0-2.832-2.877m-1.856 5.804a2.835 2.835 0 1 0 0-5.67 2.835 2.835 0 0 0 0 5.67m1.202.193h-2.405a3.634 3.634 0 0 0-3.63 3.63v2.94l.008.047.203.063c1.91.596 3.569.796 4.935.796 2.667 0 4.213-.76 4.308-.81l.19-.095h.02v-2.942a3.633 3.633 0 0 0-3.629-3.63m4.69-2.926h-2.387a3.5 3.5 0 0 1-1.078 2.433 4.31 4.31 0 0 1 3.08 4.127v.906c2.357-.087 3.715-.754 3.804-.8l.19-.095h.02v-2.942a3.634 3.634 0 0 0-3.629-3.63m.638-5.923a3.51 3.51 0 0 1 1.635 2.609 2.834 2.834 0 1 0-1.635-2.609m4.035 3.07h-2.386a3.5 3.5 0 0 1-1.078 2.434 4.31 4.31 0 0 1 3.08 4.127v.906c2.356-.087 3.714-.754 3.804-.8l.189-.095H28v-2.943c0-2-1.628-3.629-3.63-3.629m-15.539 2.66c.555 0 1.07-.163 1.508-.438a3.5 3.5 0 0 1 1.318-2.238q.006-.08.008-.16a2.834 2.834 0 1 0-2.834 2.835m2.546 2.626a3.5 3.5 0 0 1-1.078-2.42q-.131-.012-.266-.013H7.63A3.633 3.633 0 0 0 4 20.226v2.942l.007.045.203.064c1.532.479 2.9.699 4.087.767v-.888a4.31 4.31 0 0 1 3.08-4.126"/></g><defs><clipPath id="a"><path fill="#fff" d="M0 0h32v32H0z"/></clipPath></defs></svg>
